storage/app/icons/phosphoricons/bold/list-bullets-bold.svg

<svg xmlns="http://www.w3.org/2000/svg" fill="currentColor" viewBox="0 0 256 256"><path d="M76 64a12 12 0 0 1 12-12h128a12 12 0 0 1 0 24H88a12 12 0 0 1-12-12m140 52H88a12 12 0 0 0 0 24h128a12 12 0 0 0 0-24m0 64H88a12 12 0 0 0 0 24h128a12 12 0 0 0 0-24M44 112a16 16 0 1 0 16 16 16 16 0 0 0-16-16m0-64a16 16 0 1 0 16 16 16 16 0 0 0-16-16m0 128a16 16 0 1 0 16 16 16 16 0 0 0-16-16"/></svg>

<svg xmlns="http://www.w3.org/2000/svg" viewBox="0 0 256 256" fill="currentColor"><path d="M76,64A12,12,0,0,1,88,52H216a12,12,0,0,1,0,24H88A12,12,0,0,1,76,64Zm140,52H88a12,12,0,0,0,0,24H216a12,12,0,0,0,0-24Zm0,64H88a12,12,0,0,0,0,24H216a12,12,0,0,0,0-24ZM44,112a16,16,0,1,0,16,16A16,16,0,0,0,44,112Zm0-64A16,16,0,1,0,60,64,16,16,0,0,0,44,48Zm0,128a16,16,0,1,0,16,16A16,16,0,0,0,44,176Z"/></svg>
